src/static/logos/picasa.svg

<?xml version="1.0" encoding="UTF-8" standalone="no"?>
<svg width="256px" height="257px" viewBox="0 0 256 257" version="1.1" xmlns="http://www.w3.org/2000/svg" xmlns:xlink="http://www.w3.org/1999/xlink" preserveAspectRatio="xMidYMid">
	<g>
		<path d="M127.961388,0.231674208 C57.2917738,0.231674208 0,57.523448 0,128.193062 C0,198.862676 57.2917738,256.154449 127.961388,256.154449 C198.631001,256.154449 255.922775,198.862676 255.922775,128.193062 C255.922775,57.523448 198.631001,0.231674208 127.961388,0.231674208 L127.961388,0.231674208 Z M128.65641,78.3831071 L152.364404,95.7586727 L176.072398,113.211463 L166.882655,141.244042 L157.615686,169.122172 L128.193062,169.044947 L98.7704374,168.890498 L89.7351433,140.857919 L80.8542986,112.825339 L104.716742,95.5269985 L128.65641,78.3831071 L128.65641,78.3831071 Z" fill="#E9EAEB"></path>
		<path d="M113.752036,177.925792 C107.373478,177.925792 104.025236,182.34552 106.415686,189.277828 L122.864555,237.07994 C124.547486,237.157066 126.259401,237.234389 127.961388,237.234389 C170.271227,237.234389 206.946961,213.139649 225.032881,177.925792 L113.752036,177.925792 L113.752036,177.925792 Z" fill="#0DAB62"></path>
		<path d="M170.57698,157.576637 C168.53258,163.618692 171.645997,168.206867 178.978757,168.164407 L229.531099,167.904406 C230.143555,166.334979 230.765487,164.73816 231.310992,163.125962 C244.871762,123.048187 233.803125,80.5846595 206.24372,52.1664361 L170.57698,157.576637 L170.57698,157.576637 Z" fill="#FFD34E"></path>
		<path d="M76.2299851,129.781428 C74.2838797,123.706999 69.0533334,121.866866 63.1808853,126.258393 L22.6765497,156.507458 C23.1165654,158.133678 23.5652359,159.78756 24.0845139,161.408394 C36.9932927,201.700898 71.1290034,229.276601 110.181898,235.756397 L76.2299851,129.781428 L76.2299851,129.781428 Z" fill="#448AFD"></path>
		<path d="M109.522387,79.7680419 C114.627513,75.9439496 114.657572,70.3992383 108.588279,66.2840445 L66.7648272,37.8867545 C65.3716435,38.833982 63.9551417,39.7984288 62.5929443,40.8188085 C28.7299544,66.184542 13.8216188,107.456901 20.4579468,146.483497 L109.522387,79.7680419 L109.522387,79.7680419 Z" fill="#9B479F"></path>
		<path d="M168.738665,96.2116495 C173.900769,99.9584702 179.206657,98.3484147 181.344189,91.3339919 L196.111664,42.9859965 C194.794988,41.9350086 193.454972,40.8668385 192.077572,39.867076 C157.836628,15.0139012 114.001846,12.969889 78.6801567,30.8442935 L168.738665,96.2116495 L168.738665,96.2116495 Z" fill="#E04A3F"></path>
	</g>
</svg>

<svg width="256" height="257" xmlns="http://www.w3.org/2000/svg" preserveAspectRatio="xMidYMid"><path d="M127.961.232C57.291.232 0 57.523 0 128.193s57.292 127.961 127.961 127.961c70.67 0 127.962-57.291 127.962-127.96C255.923 57.523 198.63.231 127.96.231zm.695 78.151l23.708 17.376 23.708 17.452-9.19 28.033-9.266 27.878-29.423-.077-29.423-.155-9.035-28.032-8.88-28.033 23.862-17.298 23.94-17.144z" fill="#E9EAEB"/><path d="M113.752 177.926c-6.379 0-9.727 4.42-7.336 11.352l16.449 47.802c1.682.077 3.394.154 5.096.154 42.31 0 78.986-24.094 97.072-59.308H113.752z" fill="#0DAB62"/><path d="M170.577 157.577c-2.044 6.042 1.069 10.63 8.402 10.587l50.552-.26c.613-1.569 1.234-3.166 1.78-4.778 13.56-40.078 2.492-82.541-25.067-110.96l-35.667 105.41z" fill="#FFD34E"/><path d="M76.23 129.781c-1.946-6.074-7.177-7.914-13.05-3.523l-40.503 30.25c.44 1.626.888 3.28 1.408 4.9 12.908 40.293 47.044 67.869 86.097 74.348L76.23 129.781z" fill="#448AFD"/><path d="M109.522 79.768c5.106-3.824 5.136-9.369-.934-13.484L66.765 37.887c-1.393.947-2.81 1.911-4.172 2.932-33.863 25.366-48.771 66.638-42.135 105.664l89.064-66.715z" fill="#9B479F"/><path d="M168.739 96.212c5.162 3.746 10.468 2.136 12.605-4.878l14.768-48.348c-1.317-1.051-2.657-2.12-4.034-3.119-34.241-24.853-78.076-26.897-113.398-9.023l90.059 65.368z" fill="#E04A3F"/></svg>
